assets/images/vector/icons/desktop_arrow_down_icon.svg

<svg fill="none" height="55" viewBox="0 0 59 55" width="59" xmlns="http://www.w3.org/2000/svg"><g stroke="#111" stroke-linecap="round" stroke-linejoin="round" stroke-width="10"><path d="m38.3333 20.8333-9.1666 9.1666-9.1667-9.1666"/><path d="m29.166 30v-25"/><path d="m39.1667 5h7.5c3.6833 0 6.6666 2.98333 6.6666 6.6667v21.6666c0 3.6834-2.9833 6.6667-6.6666 6.6667h-35c-3.68337 0-6.6667-2.9833-6.6667-6.6667v-21.6666c0-3.68337 2.98333-6.6667 6.6667-6.6667h7.5"/><path d="m18.334 49.9999c2.5267-.7966 6.26-1.6666 10.8333-1.6666 2.65 0 6.47.2933 10.8334 1.6666"/><path d="m29.166 40v8.3333"/></g></svg>

<svg width="59" height="55" viewBox="0 0 59 55" fill="none" xmlns="http://www.w3.org/2000/svg">
<path d="M38.3333 20.8333L29.1667 29.9999L20 20.8333" stroke="#111111" stroke-width="10" stroke-linecap="round" stroke-linejoin="round"/>
<path d="M29.166 30V5" stroke="#111111" stroke-width="10" stroke-linecap="round" stroke-linejoin="round"/>
<path d="M39.1667 5H46.6667C50.35 5 53.3333 7.98333 53.3333 11.6667V33.3333C53.3333 37.0167 50.35 40 46.6667 40H11.6667C7.98333 40 5 37.0167 5 33.3333V11.6667C5 7.98333 7.98333 5 11.6667 5H19.1667" stroke="#111111" stroke-width="10" stroke-linecap="round" stroke-linejoin="round"/>
<path d="M18.334 49.9999C20.8607 49.2033 24.594 48.3333 29.1673 48.3333C31.8173 48.3333 35.6373 48.6266 40.0007 49.9999" stroke="#111111" stroke-width="10" stroke-linecap="round" stroke-linejoin="round"/>
<path d="M29.166 40V48.3333" stroke="#111111" stroke-width="10" stroke-linecap="round" stroke-linejoin="round"/>
</svg>
